assets/ico-search.svg

<?xml version="1.0" encoding="utf-8"?><!DOCTYPE svg PUBLIC "-//W3C//DTD SVG 1.1//EN" "http://www.w3.org/Graphics/SVG/1.1/DTD/svg11.dtd"><svg version="1.1" baseProfile="full" xmlns="http://www.w3.org/2000/svg" xmlns:xlink="http://www.w3.org/1999/xlink" xmlns:ev="http://www.w3.org/2001/xml-events"   height="16px"   width="15px" ><path opacity="0.2" fill="rgb( 0, 0, 0 )" d="M14.8440000000001,13.284 C14.8440000000001,13.75 14.662,14.189 14.332,14.519 C14.002,14.849 13.563,15.031 13.096,15.031 C12.629,15.031 12.191,14.849 11.861,14.52 C11.861,14.52 8.85000000000002,11.509 8.85000000000002,11.509 C8.01999999999998,11.933 7.09400000000005,12.195 6.09799999999996,12.195 C2.73000000000002,12.195 0,9.465 0,6.097 C0,2.73 2.73000000000002,0 6.09799999999996,0 C9.46500000000003,0 12.1950000000001,2.73 12.1950000000001,6.097 C12.1950000000001,7.192 11.883,8.205 11.378,9.094 C11.378,9.094 14.332,12.048 14.332,12.048 C14.662,12.378 14.8440000000001,12.817 14.8440000000001,13.284 ZM6.09799999999996,1.469 C3.54100000000005,1.469 1.46699999999998,3.542 1.46699999999998,6.1 C1.46699999999998,8.658 3.54100000000005,10.732 6.09799999999996,10.732 C8.65599999999995,10.732 10.73,8.658 10.73,6.1 C10.73,3.542 8.65599999999995,1.469 6.09799999999996,1.469 Z "/></svg>

<svg baseProfile="full" xmlns="http://www.w3.org/2000/svg" height="16" width="15"><path opacity=".2" fill="rgb( 0, 0, 0 )" d="M14.844 13.284c0 .466-.182.905-.512 1.235-.33.33-.769.512-1.236.512-.467 0-.905-.182-1.235-.511l-3.011-3.011c-.83.424-1.756.686-2.752.686-3.368 0-6.098-2.73-6.098-6.098 0-3.367 2.73-6.097 6.098-6.097 3.367 0 6.097 2.73 6.097 6.097 0 1.095-.312 2.108-.817 2.997l2.954 2.954c.33.33.512.769.512 1.236zm-8.746-11.815c-2.557 0-4.631 2.073-4.631 4.631 0 2.558 2.074 4.632 4.631 4.632 2.558 0 4.632-2.074 4.632-4.632s-2.074-4.631-4.632-4.631z"/></svg>
